img/svg/icon-font/arr-next.svg

<svg width="22" height="22" viewBox="0 0 22 22" fill="none" xmlns="http://www.w3.org/2000/svg">
<path fill-rule="evenodd" clip-rule="evenodd" d="M20.697 9.77983C21.101 10.1776 21.101 10.8224 20.697 11.2202L14.1136 17.7017C13.7096 18.0994 13.0546 18.0994 12.6506 17.7017C12.2466 17.304 12.2466 16.6591 12.6506 16.2614L17.4681 11.5185L2.03448 11.5185C1.46315 11.5185 0.999999 11.0625 0.999999 10.5C0.999999 9.93751 1.46315 9.48153 2.03448 9.48153L17.4681 9.48153L12.6506 4.73865C12.2466 4.34091 12.2466 3.69604 12.6506 3.29831C13.0546 2.90057 13.7096 2.90057 14.1136 3.29831L20.697 9.77983Z" fill="#4C51CC"/>
</svg>

<svg width="22" height="22" fill="none" xmlns="http://www.w3.org/2000/svg"><path fill-rule="evenodd" clip-rule="evenodd" d="M20.697 9.78a1.007 1.007 0 010 1.44l-6.583 6.482a1.046 1.046 0 01-1.463 0 1.007 1.007 0 010-1.44l4.817-4.744H2.034A1.027 1.027 0 011 10.5c0-.562.463-1.018 1.034-1.018h15.434l-4.817-4.743a1.007 1.007 0 010-1.44 1.046 1.046 0 011.463 0l6.583 6.48z" fill="#4C51CC"/></svg>
